X: 37969
T: Spareleg
R: polka
M: 2/4
K: Eminor
|:"Em" E>F GB|EB B/A/G|"Bm" F>G Ad|DF A/G/F|
"Em" E>F GB|EB B/A/G|"C" e>d BG|1 "D7" Ac B/A/G/F/:|2 Ac B/A/B/d/||
|:"Em" g>e Bg|eb b/a/g/f/|"C" g>e Be|"D" da a/g/f|
"Em" g>e Bg|eb b/a/g/f/|"C" e>d BG|1 "D" Ac B/A/B/d/:|2 Ac B/A/G/F/||

